X: 19
T:Difyrrwch yr Heusor Du
T:The Black Herdsman's Delight
M:6/8
L:1/8
Q:90
S:Dawnsiwyr Tawerin
A:Wales
N:This was played c.1984 at quite a slow speed
N:and the solo dance to it was very graceful B.M.
Z:brian_martin12345@yahoo.com
K:G
GBG FGA|BGB AFD|GBG FGA|GFED3|
GBG FGA|B/A/GB AFD|GBd ecd|BcAG3:||
GBd gdB|ecA dBG|Bdg dBG|cdBA3|
GBG FGA|B/A/GB AFD|GBd ecd|BcAG3:||
